X:60
T:Doherty's Fancy
C:Played by V.C.A.
M:6/8
L:1/8
K:G
%%MIDI channel 1
%%MIDI program 72
%%MIDI transpose 8
%%MIDI grace 1/8
%%MIDI ratio 3 1
D|G3 BAG|dBG gdB|G3 BAG|AFD cAF|G3 BAG|dBG gdB|efg dBG|cAF G2::
d|gfg efg|fag fed|gfg efg|agf g2(3(d/e/f/)|gfe dcB|edc BAG|efg dBG|cAF G2:|
